src/public/projets/libeo/boukili/logo.svg

<?xml version="1.0" encoding="UTF-8"?>
<svg width="133px" height="35px" viewBox="0 0 133 35" version="1.1" xmlns="http://www.w3.org/2000/svg" xmlns:xlink="http://www.w3.org/1999/xlink">
    <title>logo</title>
    <defs>
        <polygon id="path-1" points="0 8.8817842e-16 10.4523273 8.8817842e-16 10.4523273 34.1603966 0 34.1603966"></polygon>
    </defs>
    <g id="Page-1" stroke="none" stroke-width="1" fill="none" fill-rule="evenodd">
        <g id="logo">
            <path d="M11.767035,14.1539975 C14.8389043,14.1539975 17.2488886,12.4744274 17.2488886,9.35611563 C17.2488886,6.38140123 15.2168809,5.27795069 12.2397615,5.27795069 L6.56874921,5.27795069 L6.09602285,14.1539975 L11.767035,14.1539975 Z M13.5628499,29.4587078 C16.870912,29.4587078 19.7062476,27.7794836 19.7062476,23.7013187 C19.7062476,20.7747007 17.6268652,18.8556864 13.5154751,18.8556864 L5.85983009,18.8556864 L5.29269478,29.4587078 L13.5628499,29.4587078 Z M1.46487232,3.21499298 C1.55928126,1.39182556 2.40998421,0.576261774 4.20579906,0.576261774 L13.0901235,0.576261774 C19.0920782,0.576261774 22.730742,3.93470986 22.730742,8.78034217 C22.730742,11.6588636 21.076711,14.2975949 19.0920782,15.4972383 C22.683708,16.7927287 25.1881011,19.4795564 25.1881011,23.6532222 C25.1881011,30.1303282 20.6043255,34.1603966 13.8937924,34.1603966 L2.4573591,34.1603966 C0.661544245,34.1603966 0,33.3448329 0,31.5216655 L1.46487232,3.21499298 Z" id="Fill-1" fill="#FFFFFF" fill-rule="nonzero"></path>
            <path d="M46.0987584,22.6220353 C46.0987584,18.2079326 43.3954062,15.7131705 39.9198665,15.7131705 C35.6717913,15.7131705 32.8239585,19.1677759 32.8239585,23.8213204 C32.8239585,27.9475393 35.0924766,30.7779351 39.0992868,30.7779351 C43.1057488,30.7779351 46.0987584,27.6115595 46.0987584,22.6220353 M40.1611315,11.4911056 C46.6780731,11.4911056 51.2158057,15.7131705 51.2158057,22.5261894 C51.2158057,29.57865 46.5332445,35 39.0028504,35 C32.7755662,35 27.7069113,31.3537027 27.7069113,23.9652622 C27.7069113,17.2006853 32.3410802,11.4911056 40.1611315,11.4911056" id="Fill-3" fill="#FFFFFF" fill-rule="nonzero"></path>
            <path d="M53.7346158,26.8297906 L54.3452179,14.9282 C54.4390265,13.0861817 55.51901,12.330709 56.7869492,12.330709 C58.4304613,12.330709 59.134872,13.2752202 59.134872,14.9282 L58.5242699,26.5464032 C58.5242699,29.3329327 59.8389441,30.8438782 62.3748226,30.8438782 C64.3468339,30.8438782 65.8968761,30.2771033 67.3520938,28.813162 C68.4794896,27.6322676 68.7141803,26.6407522 68.8079888,25.223815 L69.3244438,14.9282 C69.4182523,13.0861817 70.4982358,12.330709 71.7665137,12.330709 C73.4096872,12.330709 74.1140979,13.2752202 74.1140979,14.9282 L73.3626136,28.3880809 C73.3626136,29.9937159 73.6447166,30.4661418 74.1611715,30.9855719 C74.5367443,31.3636488 74.7247001,31.7413852 74.7247001,32.4971985 C74.7247001,33.6774119 73.8794072,34.5279147 72.3764386,34.5279147 C70.9679559,34.5279147 69.7938251,33.7247566 69.0894145,32.3555049 C66.7418303,34.386221 64.2059518,35 61.6233383,35 C56.6460672,35 53.7346158,32.2608153 53.7346158,27.5379186 L53.7346158,26.8297906 Z" id="Fill-5" fill="#FFFFFF" fill-rule="nonzero"></path>
            <path d="M80.5213087,3.14167213 C80.6180766,1.32274034 81.7321302,0.576261774 83.0400689,0.576261774 C84.7354287,0.576261774 85.462061,1.50910768 85.462061,3.14167213 L84.5415433,19.0942455 L90.8384444,13.2169463 C91.5650766,12.5172277 92.3888266,12.2373403 93.163668,12.2373403 C94.3744902,12.2373403 95.2950078,13.0305789 95.2950078,14.1501286 C95.2950078,14.8959343 95.0529132,15.5492292 94.2291633,16.3421315 L89.4340868,20.8199937 L95.7795455,29.7757181 C96.3122931,30.5221967 96.5543877,31.0819715 96.5543877,31.8281136 C96.5543877,33.3674944 95.4403339,34.1603966 94.1809541,34.1603966 C93.163668,34.1603966 92.2917088,33.6938054 91.5650766,32.6213523 L85.7041556,24.2250663 L84.2023318,25.6245033 L83.8634694,31.5949863 C83.7667015,33.413918 82.6526479,34.1603966 81.3443599,34.1603966 C79.6493495,34.1603966 78.9227169,33.2275507 78.9227169,31.5949863 L80.5213087,3.14167213 Z" id="Fill-7" fill="#FFFFFF" fill-rule="nonzero"></path>
            <path d="M103.840166,1.41586515 C105.729274,1.41586515 107.220769,2.85601094 107.220769,4.68086506 C107.220769,6.50502665 105.729274,7.94551872 103.840166,7.94551872 C101.9507,7.94551872 100.459564,6.50502665 100.459564,4.68086506 C100.459564,2.85601094 101.9507,1.41586515 103.840166,1.41586515 L103.840166,1.41586515 Z M100.807698,14.2352057 C100.907012,12.362566 102.050372,11.5945344 103.392717,11.5945344 C105.132317,11.5945344 105.878423,12.5547471 105.878423,14.2352057 L105.083198,28.3991209 C105.033362,29.4074653 105.182153,29.8392667 106.126886,30.2232825 C106.971947,30.5595127 107.469232,31.0397922 107.469232,32.0000048 C107.469232,33.2483158 106.425185,34.1603966 104.585913,34.1603966 C101.9507,34.1603966 99.9128012,33.200184 99.9128012,29.5511683 L100.807698,14.2352057 Z" id="Fill-9" fill="#FFFFFF" fill-rule="nonzero"></path>
            <g id="Fill-11-Clipped" transform="translate(111.042872, 0.000000)">
                <mask id="mask-2" fill="white">
                    <use xlink:href="#path-1"></use>
                </mask>
                <g id="path-1"></g>
                <path d="M1.46634105,2.57368066 C1.56082267,0.74888505 2.64855507,8.8817842e-16 3.9255918,8.8817842e-16 C5.58089608,8.8817842e-16 6.29036093,0.935853193 6.29036093,2.57368066 L4.87143124,27.7026721 C4.77694962,29.3870729 5.58089608,30.0424738 6.47932417,30.0424738 C7.51998631,30.0424738 7.89791278,29.5743785 8.70220033,29.5743785 C9.8847554,29.5743785 10.4523273,30.3232636 10.4523273,31.3526008 C10.4523273,32.9435175 8.98598627,34.1604979 5.48607338,34.1604979 C2.55373237,34.1604979 0,32.5692437 0,28.4515572 L1.46634105,2.57368066 Z" id="Fill-11" fill="#FFFFFF" fill-rule="nonzero" mask="url(#mask-2)"></path>
            </g>
            <path d="M129.028267,1.41586515 C130.917375,1.41586515 132.40887,2.85601094 132.40887,4.68086506 C132.40887,6.50502665 130.917375,7.94551872 129.028267,7.94551872 C127.138801,7.94551872 125.647665,6.50502665 125.647665,4.68086506 C125.647665,2.85601094 127.138801,1.41586515 129.028267,1.41586515 L129.028267,1.41586515 Z M125.995799,14.2352057 C126.095113,12.362566 127.238473,11.5945344 128.580818,11.5945344 C130.320418,11.5945344 131.066524,12.5547471 131.066524,14.2352057 L130.271299,28.3991209 C130.221463,29.4074653 130.370254,29.8392667 131.314987,30.2232825 C132.160048,30.5595127 132.657333,31.0397922 132.657333,32.0000048 C132.657333,33.2483158 131.613286,34.1603966 129.774015,34.1603966 C127.138801,34.1603966 125.100902,33.200184 125.100902,29.5511683 L125.995799,14.2352057 Z" id="Fill-14" fill="#FFFFFF" fill-rule="nonzero"></path>
        </g>
    </g>
</svg>

<svg height="35" width="133" xmlns="http://www.w3.org/2000/svg" xmlns:xlink="http://www.w3.org/1999/xlink"><mask id="a" fill="#fff"><path d="m0 0h10.4523273v34.1603966h-10.4523273z" fill="#fff" fill-rule="evenodd"/></mask><g fill="#fff" fill-rule="nonzero"><path d="m11.767 14.154c3.072 0 5.482-1.68 5.482-4.798 0-2.975-2.032-4.078-5.01-4.078h-5.669l-.473 8.876h5.671zm1.796 15.305c3.308 0 6.143-1.68 6.143-5.758 0-2.926-2.08-4.845-6.19-4.845h-7.656l-.567 10.603zm-12.098-26.244c.094-1.823.945-2.639 2.74-2.639h8.885c6.002 0 9.64 3.359 9.64 8.204 0 2.879-1.653 5.518-3.638 6.717 3.592 1.296 6.096 3.983 6.096 8.156 0 6.477-4.584 10.507-11.294 10.507h-11.437c-1.795 0-2.457-.815-2.457-2.638zm44.634 19.407c0-4.414-2.704-6.909-6.18-6.909-4.247 0-7.095 3.455-7.095 8.108 0 4.127 2.268 6.957 6.275 6.957s7-3.166 7-8.156m-5.938-11.13c6.517 0 11.055 4.221 11.055 11.034 0 7.054-4.683 12.474-12.213 12.474-6.227 0-11.296-3.646-11.296-11.035 0-6.764 4.634-12.474 12.454-12.474m13.574 15.339.61-11.902c.094-1.842 1.174-2.597 2.442-2.597 1.643 0 2.348.944 2.348 2.597l-.61 11.618c0 2.787 1.314 4.298 3.85 4.298 1.972 0 3.522-.567 4.977-2.03 1.127-1.182 1.362-2.173 1.456-3.59l.516-10.296c.094-1.842 1.174-2.597 2.443-2.597 1.643 0 2.347.944 2.347 2.597l-.751 13.46c0 1.606.282 2.078.798 2.598.376.378.564.755.564 1.511 0 1.18-.846 2.03-2.349 2.03-1.408 0-2.582-.802-3.287-2.171-2.347 2.03-4.883 2.644-7.466 2.644-4.977 0-7.888-2.74-7.888-7.462zm26.785-23.688c.097-1.82 1.211-2.566 2.52-2.566 1.694 0 2.421.933 2.421 2.566l-.92 15.952 6.296-5.877c.727-.7 1.55-.98 2.326-.98 1.21 0 2.131.794 2.131 1.913 0 .746-.242 1.4-1.066 2.192l-4.795 4.478 6.346 8.956c.532.746.774 1.306.774 2.052 0 1.54-1.114 2.332-2.373 2.332-1.017 0-1.89-.466-2.616-1.539l-5.86-8.396-1.503 1.4-.339 5.97c-.096 1.819-1.21 2.565-2.519 2.565-1.695 0-2.421-.932-2.421-2.565zm23.32-1.726c1.888 0 3.38 1.44 3.38 3.265 0 1.824-1.492 3.265-3.38 3.265-1.89 0-3.381-1.441-3.381-3.265 0-1.825 1.49-3.265 3.38-3.265zm-3.033 12.82c.099-1.873 1.242-2.641 2.585-2.641 1.74 0 2.485.96 2.485 2.64l-.795 14.164c-.05 1.008.1 1.44 1.044 1.824.845.337 1.342.817 1.342 1.777 0 1.248-1.044 2.16-2.883 2.16-2.635 0-4.673-.96-4.673-4.609l.895-15.316z"/><path d="m1.466 2.574c.095-1.825 1.184-2.574 2.46-2.574 1.654 0 2.364.936 2.364 2.574l-1.419 25.129c-.094 1.684.71 2.34 1.608 2.34 1.041 0 1.419-.469 2.223-.469 1.183 0 1.75.75 1.75 1.779 0 1.59-1.466 2.807-4.966 2.807-2.932 0-5.486-1.59-5.486-5.708z" mask="url(#a)" transform="translate(111.043)"/><path d="m129.028 1.416c1.89 0 3.38 1.44 3.38 3.265 0 1.824-1.49 3.265-3.38 3.265s-3.38-1.441-3.38-3.265c0-1.825 1.49-3.265 3.38-3.265zm-3.032 12.82c.1-1.873 1.242-2.641 2.585-2.641 1.74 0 2.486.96 2.486 2.64l-.797 14.165c-.05 1.008.1 1.44 1.044 1.824.845.337 1.342.817 1.342 1.777 0 1.248-1.044 2.16-2.883 2.16-2.635 0-4.673-.96-4.673-4.609l.895-15.316z"/></g></svg>
